;FLAVOR:Marlin
;TIME:19732
;Filament used: 20.075m
;Layer height: 0.28
;MINX:4
;MINY:39
;MINZ:0.28
;MAXX:216
;MAXY:181
;MAXZ:10.08
;Generated with Cura_SteamEngine 4.13.0
M140 S60
M105
M190 S60
M104 S200
M105
M109 S200
M82 ;absolute extrusion mode
; Ender 3 Custom Start G-code
G92 E0 ; Reset Extruder
G28 ; Home all axes
G1 Z2.0 F3000 ; Move Z Axis up little to prevent scratching of Heat Bed
G1 X0.1 Y20 Z0.3 F5000.0 ; Move to start position
G1 X0.1 Y200.0 Z0.3 F1500.0 E15 ; Draw the first line
G1 X0.4 Y200.0 Z0.3 F5000.0 ; Move to side a little
G1 X0.4 Y20 Z0.3 F1500.0 E30 ; Draw the second line
G92 E0 ; Reset Extruder
G1 Z2.0 F3000 ; Move Z Axis up little to prevent scratching of Heat Bed
G1 X5 Y20 Z0.3 F5000.0 ; Move over to prevent blob squish
G92 E0
G92 E0
G1 F1500 E-6.5
;LAYER_COUNT:36
;LAYER:0
M107
G0 F6000 X11.991 Y39.431 Z0.28
;TYPE:SKIRT
G1 F1500 E0
G1 F1200 X12.903 Y39.213 E0.04366
G1 X13.83 Y39.072 E0.08732
G1 X14.701 Y39.013 E0.12797
G1 X15.022 Y39.004 E0.14293
G1 X15.33 Y39 E0.15727
G1 X204.293 Y39 E8.95618
G1 X205.149 Y39.011 E8.99604
G1 X206.085 Y39.065 E9.0397
G1 X207.013 Y39.197 E9.08334
G1 X207.927 Y39.409 E9.12703
G1 X208.819 Y39.698 E9.1707
G1 X209.684 Y40.061 E9.21438
G1 X210.514 Y40.497 E9.25803
G1 X211.305 Y41.002 E9.30173
G1 X212.049 Y41.573 E9.3454
G1 X212.742 Y42.205 E9.38907
G1 X213.379 Y42.893 E9.43273
G1 X213.954 Y43.634 E9.47641
G1 X214.465 Y44.42 E9.52006
G1 X214.907 Y45.248 E9.56377
G1 X215.276 Y46.11 E9.60743
G1 X215.571 Y47 E9.65109
G1 X215.789 Y47.912 E9.69475
G1 X215.929 Y48.84 E9.73845
G1 X215.987 Y49.701 E9.77863
G1 X215.996 Y50.021 E9.79354
G1 X216 Y50.33 E9.80793
G1 X215.999 Y169.4 E15.35233
G1 X215.99 Y170.127 E15.38618
G1 X215.939 Y171.064 E15.42988
G1 X215.807 Y171.992 E15.47352
G1 X215.598 Y172.906 E15.51718
G1 X215.311 Y173.799 E15.56086
G1 X214.949 Y174.665 E15.60456
G1 X214.515 Y175.496 E15.64822
G1 X214.011 Y176.287 E15.69189
G1 X213.442 Y177.032 E15.73554
G1 X212.811 Y177.727 E15.77925
G1 X212.124 Y178.365 E15.82291
G1 X211.385 Y178.942 E15.86657
G1 X210.599 Y179.454 E15.91025
G1 X209.773 Y179.897 E15.95389
G1 X208.911 Y180.269 E15.99761
G1 X208.022 Y180.565 E16.04124
G1 X207.11 Y180.785 E16.08492
G1 X206.183 Y180.926 E16.12858
G1 X205.299 Y180.987 E16.16984
G1 X204.978 Y180.996 E16.1848
G1 X204.67 Y181 E16.19914
G1 X15.565 Y180.999 E25.00466
G1 X14.867 Y180.99 E25.03717
G1 X13.931 Y180.938 E25.08082
G1 X13.002 Y180.806 E25.12451
G1 X12.088 Y180.596 E25.16818
G1 X11.195 Y180.309 E25.21185
G1 X10.33 Y179.946 E25.25554
G1 X9.499 Y179.512 E25.29919
G1 X8.708 Y179.008 E25.34286
G1 X7.963 Y178.438 E25.38654
G1 X7.269 Y177.807 E25.43022
G1 X6.632 Y177.12 E25.47384
G1 X6.055 Y176.38 E25.51754
G1 X5.543 Y175.594 E25.56122
G1 X5.1 Y174.767 E25.6049
G1 X4.729 Y173.906 E25.64856
G1 X4.433 Y173.016 E25.69223
G1 X4.214 Y172.104 E25.73591
G1 X4.073 Y171.177 E25.77957
G1 X4.013 Y170.288 E25.82106
G1 X4.004 Y169.955 E25.83657
G1 X4 Y169.658 E25.8504
G1 X4.001 Y50.525 E31.39773
G1 X4.01 Y49.86 E31.4287
G1 X4.063 Y48.924 E31.47235
G1 X4.195 Y47.995 E31.51605
G1 X4.406 Y47.081 E31.55972
G1 X4.694 Y46.189 E31.60337
G1 X5.057 Y45.324 E31.64705
G1 X5.492 Y44.493 E31.69073
G1 X5.996 Y43.703 E31.73436
G1 X6.566 Y42.958 E31.77804
G1 X7.198 Y42.264 E31.82175
G1 X7.886 Y41.627 E31.86541
G1 X8.626 Y41.051 E31.90907
G1 X9.412 Y40.539 E31.95275
G1 X10.239 Y40.097 E31.99642
G1 X11.101 Y39.727 E32.0401
G1 X11.991 Y39.431 E32.08377
G0 F6000 X12.345 Y39.749
G1 F1200 X13.245 Y39.557 E32.12662
G1 X14.159 Y39.443 E32.16951
G1 X14.712 Y39.413 E32.1953
G1 X15.033 Y39.404 E32.21025
G1 X15.33 Y39.4 E32.22408
G1 X204.293 Y39.4 E41.02299
G1 X205.143 Y39.411 E41.06257
G1 X206.062 Y39.464 E41.10544
G1 X206.973 Y39.597 E41.14831
G1 X207.869 Y39.808 E41.19117
G1 X208.743 Y40.096 E41.23402
G1 X209.59 Y40.459 E41.27693
G1 X210.401 Y40.894 E41.31978
G1 X211.171 Y41.398 E41.36263
G1 X211.895 Y41.967 E41.40551
G1 X212.567 Y42.597 E41.4484
G1 X213.182 Y43.282 E41.49127
G1 X213.735 Y44.018 E41.53414
G1 X214.222 Y44.799 E41.57699
G1 X214.639 Y45.62 E41.61987
G1 X214.984 Y46.474 E41.66276
G1 X215.253 Y47.354 E41.70561
G1 X215.445 Y48.255 E41.7485
G1 X215.558 Y49.168 E41.79134
G1 X215.587 Y49.712 E41.81671
G1 X215.596 Y50.032 E41.83162
G1 X215.6 Y50.33 E41.84549
G1 X215.599 Y169.395 E47.38966
G1 X215.59 Y170.122 E47.42351
G1 X215.539 Y171.041 E47.46637
G1 X215.408 Y171.953 E47.50927
G1 X215.198 Y172.849 E47.55213
G1 X214.912 Y173.724 E47.59499
G1 X214.551 Y174.571 E47.63786
G1 X214.117 Y175.383 E47.68073
G1 X213.615 Y176.155 E47.72361
G1 X213.047 Y176.88 E47.7665
G1 X212.419 Y177.553 E47.80936
G1 X211.735 Y178.169 E47.85222
G1 X211 Y178.723 E47.89508
G1 X210.22 Y179.212 E47.93795
G1 X209.4 Y179.631 E47.98083
G1 X208.547 Y179.977 E48.02369
G1 X207.667 Y180.248 E48.06657
G1 X206.767 Y180.441 E48.10943
G1 X205.853 Y180.556 E48.15232
G1 X205.288 Y180.587 E48.17867
G1 X204.967 Y180.596 E48.19362
G1 X204.67 Y180.6 E48.20745
G1 X15.57 Y180.599 E57.01274
G1 X14.872 Y180.59 E57.04525
G1 X13.953 Y180.538 E57.08811
G1 X13.042 Y180.407 E57.13096
G1 X12.146 Y180.197 E57.17382
G1 X11.271 Y179.91 E57.2167
G1 X10.424 Y179.548 E57.25959
G1 X9.612 Y179.114 E57.30246
G1 X8.841 Y178.612 E57.3453
G1 X8.116 Y178.044 E57.38818
G1 X7.443 Y177.415 E57.43108
G1 X6.828 Y176.731 E57.47391
G1 X6.274 Y175.996 E57.51677
G1 X5.786 Y175.215 E57.55965
G1 X5.367 Y174.395 E57.60253
G1 X5.021 Y173.542 E57.64539
G1 X4.751 Y172.662 E57.68825
G1 X4.558 Y171.761 E57.73116
G1 X4.444 Y170.848 E57.774
G1 X4.413 Y170.277 E57.80063
G1 X4.404 Y169.944 E57.81614
G1 X4.4 Y169.658 E57.82946
G1 X4.401 Y50.531 E63.37651
G1 X4.41 Y49.866 E63.40748
G1 X4.462 Y48.946 E63.45039
G1 X4.594 Y48.035 E63.49325
G1 X4.805 Y47.139 E63.53611
G1 X5.092 Y46.264 E63.57899
G1 X5.455 Y45.418 E63.62186
G1 X5.889 Y44.606 E63.66473
G1 X6.392 Y43.835 E63.7076
G1 X6.961 Y43.111 E63.75047
G1 X7.589 Y42.439 E63.7933
G1 X8.274 Y41.823 E63.8362
G1 X9.01 Y41.27 E63.87907
G1 X9.791 Y40.782 E63.92195
G1 X10.611 Y40.364 E63.9648
G1 X11.465 Y40.019 E64.00769
G1 X12.345 Y39.749 E64.05055
G0 F6000 X11.827 Y40.318
G1 F1200 X12.696 Y40.075 E64.09257
G1 X13.584 Y39.909 E64.13464
G1 X14.723 Y39.813 E64.18786
G1 X15.044 Y39.804 E64.20281
G1 X15.33 Y39.8 E64.21613
G1 X204.293 Y39.8 E73.01504
G1 X205.137 Y39.811 E73.05435
G1 X206.039 Y39.864 E73.09642
G1 X206.932 Y39.996 E73.13845
G1 X207.81 Y40.207 E73.1805
G1 X208.666 Y40.495 E73.22255
G1 X209.493 Y40.857 E73.26459
G1 X210.285 Y41.292 E73.30667
G1 X211.036 Y41.794 E73.34873
G1 X211.739 Y42.361 E73.39078
G1 X212.389 Y42.988 E73.43284
G1 X212.981 Y43.67 E73.47489
G1 X213.511 Y44.401 E73.51693
G1 X213.973 Y45.177 E73.55898
G1 X214.366 Y45.99 E73.60103
G1 X214.684 Y46.835 E73.64307
G1 X214.927 Y47.705 E73.68513
G1 X215.092 Y48.593 E73.72719
G1 X215.187 Y49.723 E73.77999
G1 X215.196 Y50.043 E73.7949
G1 X215.2 Y50.33 E73.80827
G1 X215.199 Y169.39 E79.3522
G1 X215.19 Y170.117 E79.38605
G1 X215.139 Y171.019 E79.42812
G1 X215.008 Y171.913 E79.47019
G1 X214.799 Y172.791 E79.51222
G1 X214.513 Y173.648 E79.55429
G1 X214.152 Y174.476 E79.59635
G1 X213.72 Y175.268 E79.63836
G1 X213.219 Y176.02 E79.68043
G1 X212.653 Y176.724 E79.7225
G1 X212.028 Y177.375 E79.76452
G1 X211.347 Y177.969 E79.8066
G1 X210.616 Y178.5 E79.84867
G1 X209.842 Y178.964 E79.89069
G1 X209.029 Y179.358 E79.93276
G1 X208.185 Y179.678 E79.97479
G1 X207.315 Y179.923 E80.01687
G1 X206.428 Y180.089 E80.05889
G1 X205.277 Y180.187 E80.11268
G1 X204.956 Y180.196 E80.12763
G1 X204.67 Y180.2 E80.14095
G1 X15.575 Y180.199 E88.94601
G1 X14.877 Y180.19 E88.97851
G1 X13.976 Y180.139 E89.02053
G1 X13.082 Y180.007 E89.06261
G1 X12.204 Y179.798 E89.10464
G1 X11.347 Y179.511 E89.14672
G1 X10.52 Y179.15 E89.18874
G1 X9.727 Y178.717 E89.23081
G1 X8.976 Y178.216 E89.27285
G1 X8.272 Y177.65 E89.31491
G1 X7.621 Y177.024 E89.35696
G1 X7.028 Y176.343 E89.39901
G1 X6.498 Y175.612 E89.44106
G1 X6.034 Y174.837 E89.48312
G1 X5.64 Y174.024 E89.52518
G1 X5.32 Y173.18 E89.56721
G1 X5.076 Y172.31 E89.60929
G1 X4.91 Y171.422 E89.65135
G1 X4.813 Y170.267 E89.70533
G1 X4.804 Y169.934 E89.72084
G1 X4.8 Y169.658 E89.73369
G1 X4.801 Y50.536 E95.28051
G1 X4.81 Y49.871 E95.31148
G1 X4.862 Y48.969 E95.35355
G1 X4.994 Y48.076 E95.39558
G1 X5.204 Y47.198 E95.43762
G1 X5.491 Y46.341 E95.4797
G1 X5.853 Y45.514 E95.52174
G1 X6.286 Y44.722 E95.56377
G1 X6.788 Y43.971 E95.60583
G1 X7.355 Y43.267 E95.64792
G1 X7.981 Y42.617 E95.68994
G1 X8.662 Y42.024 E95.73199
G1 X9.394 Y41.494 E95.77407
G1 X10.169 Y41.031 E95.81611
G1 X10.982 Y40.638 E95.85816
G1 X11.827 Y40.318 E95.90023
G1 F1500 E89.40023
;MESH:motorbaseLid.stl
G0 F6000 X28.197 Y54.362
G0 X30.794 Y56.656
G0 X64.022 Y85.098
G0 X35.153 Y85.153
G0 X35.153 Y134.847
G0 X122.068 Y134.9
G0 X134.718 Y145.755
G0 X133.312 Y146.179
G0 X134.661 Y148.601
G0 X135.531 Y149.636
G0 X136.389 Y150.306
G0 X137.748 Y151.204
;TYPE:WALL-INNER
G1 F1500 E95.90023
G1 F1200 X138.186 Y151.346 E95.92167
G1 X138.634 Y151.458 E95.94317
G1 X139.083 Y151.536 E95.96439
G1 X139.545 Y151.584 E95.98602
G1 X140.006 Y151.6 E96.0075
G1 X140.467 Y151.584 E96.02898
G1 X140.925 Y151.535 E96.05043
G1 X141.377 Y151.455 E96.0718
G1 X141.826 Y151.344 E96.09334
G1 X142.263 Y151.2 E96.11476
G1 X142.689 Y151.028 E96.13616
G1 X143.104 Y150.824 E96.15769
G1 X143.503 Y150.594 E96.17913
G1 X143.885 Y150.336 E96.2006
G1 X144.248 Y150.051 E96.22209
G1 X144.585 Y149.748 E96.24319
G1 X144.905 Y149.417 E96.26463
G1 X145.202 Y149.063 E96.28614
G1 X145.472 Y148.691 E96.30755
G1 X145.716 Y148.3 E96.32901
G1 X145.933 Y147.892 E96.35053
G1 X146.119 Y147.473 E96.37187
G1 X146.277 Y147.04 E96.39334
G1 X146.404 Y146.597 E96.4148
G1 X146.5 Y146.146 E96.43627
G1 X146.564 Y145.69 E96.45771
G1 X146.596 Y145.23 E96.47918
G1 X146.596 Y144.77 E96.5006
G1 X146.564 Y144.31 E96.52207
G1 X146.5 Y143.854 E96.54351
G1 X146.404 Y143.403 E96.56498
G1 X146.277 Y142.96 E96.58644
G1 X146.119 Y142.527 E96.6079
G1 X145.933 Y142.108 E96.62925
G1 X145.716 Y141.7 E96.65077
G1 X145.472 Y141.309 E96.67223
G1 X145.202 Y140.937 E96.69363
G1 X144.905 Y140.583 E96.71515
G1 X144.581 Y140.248 E96.73685
G1 X144.241 Y139.942 E96.75815
G1 X143.877 Y139.659 E96.77962
G1 X143.496 Y139.402 E96.80102
G1 X143.097 Y139.17 E96.82251
G1 X142.681 Y138.969 E96.84402
G1 X142.254 Y138.797 E96.86546
G1 X141.816 Y138.654 E96.88691
G1 X141.369 Y138.543 E96.90836
G1 X140.916 Y138.464 E96.92977
G1 X140.458 Y138.416 E96.95121
G1 X139.997 Y138.4 E96.97269
G1 X139.536 Y138.416 E96.99417
G1 X139.078 Y138.464 E97.01562
G1 X138.624 Y138.544 E97.03708
G1 X138.177 Y138.657 E97.05855
G1 X137.741 Y138.799 E97.0799
G1 X137.315 Y138.971 E97.10129
G1 X136.899 Y139.172 E97.12281
G1 X136.499 Y139.404 E97.14434
G1 X136.118 Y139.662 E97.16577
G1 X135.754 Y139.946 E97.18726
G1 X135.415 Y140.252 E97.20853
G1 X135.095 Y140.583 E97.22997
G1 X134.798 Y140.937 E97.25148
G1 X134.528 Y141.309 E97.27289
G1 X134.284 Y141.7 E97.29435
G1 X134.067 Y142.108 E97.31587
G1 X133.881 Y142.527 E97.33721
G1 X133.723 Y142.96 E97.35867
G1 X133.596 Y143.403 E97.38013
G1 X133.5 Y143.854 E97.4016
G1 X133.436 Y144.31 E97.42305
G1 X133.404 Y144.77 E97.44452
G1 X133.404 Y145.23 E97.46594
G1 X133.436 Y145.69 E97.48741
G1 X133.5 Y146.146 E97.50885
G1 X133.596 Y146.597 E97.53032
G1 X133.723 Y147.04 E97.55178
G1 X133.881 Y147.473 E97.57324
G1 X134.067 Y147.892 E97.59459
G1 X134.284 Y148.3 E97.61611
G1 X134.528 Y148.691 E97.63757
G1 X134.798 Y149.063 E97.65897
G1 X135.095 Y149.417 E97.68049
G1 X135.419 Y149.752 E97.70219
G1 X135.762 Y150.06 E97.72365
G1 X136.126 Y150.343 E97.74512
G1 X136.507 Y150.6 E97.76652
G1 X136.907 Y150.831 E97.78803
G1 X137.322 Y151.032 E97.8095
G1 X137.748 Y151.204 E97.8309
G0 F6000 X137.885 Y150.828
;TYPE:WALL-OUTER
G1 F1200 X138.296 Y150.961 E97.85101
G1 X138.717 Y151.066 E97.87121
G1 X139.138 Y151.14 E97.89112
G1 X139.573 Y151.185 E97.91148
G1 X140.006 Y151.2 E97.93166
G1 X140.439 Y151.185 E97.95183
G1 X140.869 Y151.139 E97.97197
G1 X141.294 Y151.064 E97.99206
G1 X141.715 Y150.959 E98.01227
G1 X142.125 Y150.824 E98.03237
G1 X142.526 Y150.662 E98.05251
G1 X142.916 Y150.471 E98.07273
G1 X143.291 Y150.255 E98.09288
G1 X143.649 Y150.013 E98.113
G1 X143.99 Y149.745 E98.13319
G1 X144.307 Y149.46 E98.15304
G1 X144.608 Y149.149 E98.1732
G1 X144.886 Y148.817 E98.19336
G1 X145.14 Y148.467 E98.2135
G1 X145.369 Y148.1 E98.23364
G1 X145.573 Y147.717 E98.25385
G1 X145.748 Y147.323 E98.27392
G1 X145.896 Y146.916 E98.29409
G1 X146.016 Y146.5 E98.31425
G1 X146.106 Y146.077 E98.33438
G1 X146.166 Y145.648 E98.35455
G1 X146.196 Y145.216 E98.37472
G1 X146.196 Y144.784 E98.39483
G1 X146.166 Y144.352 E98.415
G1 X146.106 Y143.923 E98.43517
G1 X146.016 Y143.5 E98.45531
G1 X145.896 Y143.084 E98.47547
G1 X145.748 Y142.677 E98.49563
G1 X145.573 Y142.283 E98.51571
G1 X145.369 Y141.9 E98.53591
G1 X145.14 Y141.533 E98.55606
G1 X144.886 Y141.183 E98.57619
G1 X144.608 Y140.851 E98.59636
G1 X144.303 Y140.536 E98.61677
G1 X143.984 Y140.249 E98.63675
G1 X143.642 Y139.983 E98.65693
G1 X143.284 Y139.741 E98.67705
G1 X142.909 Y139.524 E98.69722
G1 X142.519 Y139.335 E98.71741
G1 X142.117 Y139.173 E98.73759
G1 X141.706 Y139.039 E98.75772
G1 X141.286 Y138.935 E98.77786
G1 X140.86 Y138.86 E98.79801
G1 X140.43 Y138.815 E98.81814
G1 X139.997 Y138.8 E98.83831
G1 X139.564 Y138.815 E98.85849
G1 X139.134 Y138.86 E98.87862
G1 X138.708 Y138.935 E98.89876
G1 X138.288 Y139.041 E98.91893
G1 X137.878 Y139.175 E98.93901
G1 X137.477 Y139.337 E98.95915
G1 X137.087 Y139.526 E98.97933
G1 X136.712 Y139.743 E98.99951
G1 X136.353 Y139.986 E99.01969
G1 X136.011 Y140.253 E99.0399
G1 X135.693 Y140.54 E99.05984
G1 X135.392 Y140.851 E99.08
G1 X135.114 Y141.183 E99.10016
G1 X134.86 Y141.533 E99.1203
G1 X134.631 Y141.9 E99.14044
G1 X134.427 Y142.283 E99.16065
G1 X134.252 Y142.677 E99.18072
G1 X134.104 Y143.084 E99.20089
G1 X133.984 Y143.5 E99.22105
G1 X133.894 Y143.923 E99.24118
G1 X133.834 Y144.352 E99.26135
G1 X133.804 Y144.784 E99.28152
G1 X133.804 Y145.216 E99.30163
G1 X133.834 Y145.648 E99.3218
G1 X133.894 Y146.077 E99.34197
G1 X133.984 Y146.5 E99.36211
G1 X134.104 Y146.916 E99.38227
G1 X134.252 Y147.323 E99.40243
G1 X134.427 Y147.717 E99.42251
G1 X134.631 Y148.1 E99.44271
G1 X134.86 Y148.467 E99.46286
G1 X135.114 Y148.817 E99.48299
G1 X135.392 Y149.149 E99.50316
G1 X135.697 Y149.464 E99.52357
G1 X136.019 Y149.753 E99.54372
G1 X136.361 Y150.019 E99.56389
G1 X136.719 Y150.261 E99.58402
G1 X137.094 Y150.477 E99.60417
G1 X137.484 Y150.666 E99.62435
G1 X137.885 Y150.828 E99.64449
G0 F6000 X137.735 Y151.241
G1 F1500 E93.14449
G0 F6000 X138.595 Y151.645
G0 X138.885 Y150.217
G0 X139.295 Y163.305
G0 X138.764 Y161.949
G0 X137.621 Y163.273
G0 X137.203 Y164.093
G0 X137.067 Y164.797
G0 X137.105 Y165.514
G0 X137.356 Y166.286
G0 X138.176 Y167.507
;TYPE:WALL-INNER
G1 F1500 E99.64449
G1 F1200 X138.449 Y167.685 E99.65966
G1 X138.74 Y167.834 E99.67488
G1 X139.046 Y167.95 E99.69012
G1 X139.456 Y168.053 E99.70981
G1 X139.79 Y168.094 E99.72548
G1 X140.215 Y168.094 E99.74527
G1 X140.547 Y168.053 E99.76084
G1 X140.958 Y167.949 E99.78058
G1 X141.264 Y167.832 E99.79584
G1 X141.552 Y167.684 E99.81092
G1 X141.824 Y167.508 E99.826
G1 X142.078 Y167.301 E99.84126
G1 X142.305 Y167.075 E99.85617
G1 X142.509 Y166.822 E99.87131
G1 X142.685 Y166.55 E99.88639
G1 X142.833 Y166.262 E99.90147
G1 X142.95 Y165.955 E99.91677
G1 X143.053 Y165.544 E99.9365
G1 X143.094 Y165.213 E99.95203
G1 X143.095 Y164.79 E99.97173
G1 X143.053 Y164.456 E99.9874
G1 X142.949 Y164.041 E100.00732
G1 X142.79 Y163.644 E100.02724
G1 X142.576 Y163.274 E100.04714
G1 X142.375 Y163.008 E100.06266
G1 X142.152 Y162.768 E100.07792
G1 X141.824 Y162.493 E100.09785
G1 X141.551 Y162.315 E100.11303
G1 X141.26 Y162.166 E100.12825
G1 X140.954 Y162.05 E100.14349
G1 X140.544 Y161.947 E100.16317
G1 X140.217 Y161.907 E100.17851
G1 X139.99 Y161.9 E100.18909
G1 X139.572 Y161.929 E100.2086
G1 X139.243 Y161.992 E100.22419
G1 X138.836 Y162.126 E100.24415
G1 X138.451 Y162.314 E100.2641
G1 X138.176 Y162.492 E100.27935
G1 X137.922 Y162.699 E100.29461
G1 X137.695 Y162.925 E100.30952
G1 X137.491 Y163.178 E100.32466
G1 X137.315 Y163.45 E100.33974
