;FLAVOR:Marlin
;TIME:16850
;Filament used: 17.2791m
;Layer height: 0.28
;MINX:39.335
;MINY:53.229
;MINZ:0.28
;MAXX:180.665
;MAXY:166.545
;MAXZ:31.08
;Generated with Cura_SteamEngine 5.0.0
M140 S60
M105
M190 S60
M104 S205
M105
M109 S205
M82 ;absolute extrusion mode
; Ender 3 Custom Start G-code
G92 E0 ; Reset Extruder
G28 ; Home all axes
G1 Z2.0 F3000 ; Move Z Axis up little to prevent scratching of Heat Bed
G1 X0.1 Y20 Z0.3 F5000.0 ; Move to start position
G1 X0.1 Y200.0 Z0.3 F1500.0 E15 ; Draw the first line
G1 X0.4 Y200.0 Z0.3 F5000.0 ; Move to side a little
G1 X0.4 Y20 Z0.3 F1500.0 E30 ; Draw the second line
G92 E0 ; Reset Extruder
G1 Z2.0 F3000 ; Move Z Axis up little to prevent scratching of Heat Bed
G1 X5 Y20 Z0.3 F5000.0 ; Move over to prevent blob squish
G92 E0
G92 E0
G1 F1500 E-6.5
;LAYER_COUNT:111
;LAYER:0
M107
;MESH:piCaseShell-top.stl
G0 F6000 X78.537 Y78.914 Z0.28
;TYPE:WALL-OUTER
G1 F1500 E0
G1 F1200 X78.172 Y78.939 E0.01704
G1 X77.825 Y78.939 E0.03319
G1 X77.461 Y78.914 E0.05018
G1 X77.105 Y78.864 E0.06692
G1 X76.76 Y78.792 E0.08333
G1 X76.399 Y78.688 E0.10083
G1 X76.057 Y78.565 E0.11775
G1 X75.725 Y78.418 E0.13466
G1 X75.392 Y78.242 E0.1522
G1 X75.097 Y78.055 E0.16846
G1 X74.804 Y77.842 E0.18533
G1 X74.523 Y77.608 E0.20235
G1 X74.263 Y77.357 E0.21918
G1 X74.009 Y77.078 E0.23675
G1 X73.788 Y76.792 E0.25358
G1 X73.584 Y76.491 E0.27051
G1 X73.405 Y76.177 E0.28734
G1 X73.249 Y75.856 E0.30396
G1 X73.105 Y75.499 E0.32189
G1 X72.997 Y75.163 E0.33832
G1 X72.907 Y74.802 E0.35564
G1 X72.85 Y74.458 E0.37188
G1 X72.812 Y74.095 E0.38888
G1 X72.8 Y73.75 E0.40495
G1 X72.813 Y73.371 E0.42261
G1 X72.851 Y73.011 E0.43946
G1 X72.91 Y72.678 E0.45521
G1 X73.004 Y72.303 E0.47321
G1 X73.111 Y71.972 E0.48941
G1 X73.254 Y71.614 E0.50736
G1 X73.412 Y71.291 E0.52411
G1 X73.593 Y70.98 E0.54086
G1 X73.796 Y70.679 E0.55777
G1 X74.02 Y70.396 E0.57457
G1 X74.263 Y70.123 E0.59159
G1 X74.515 Y69.883 E0.60779
G1 X74.793 Y69.647 E0.62478
G1 X75.086 Y69.436 E0.64159
G1 X75.383 Y69.25 E0.65791
G1 X75.714 Y69.071 E0.67543
G1 X76.045 Y68.924 E0.69229
G1 X76.38 Y68.801 E0.70891
G1 X76.751 Y68.692 E0.72691
G1 X77.091 Y68.623 E0.74307
G1 X77.45 Y68.571 E0.75996
G1 X77.814 Y68.546 E0.77695
G1 X78.176 Y68.545 E0.79381
G1 X78.553 Y68.57 E0.8114
G1 X78.908 Y68.622 E0.82811
G1 X79.252 Y68.694 E0.84447
G1 X79.622 Y68.8 E0.86239
G1 X79.954 Y68.923 E0.87888
G1 X80.287 Y69.071 E0.89585
G1 X80.621 Y69.249 E0.91347
G1 X80.914 Y69.436 E0.92966
G1 X81.206 Y69.649 E0.94649
G1 X81.487 Y69.882 E0.96348
G1 X81.746 Y70.134 E0.98031
G1 X81.98 Y70.395 E0.99663
G1 X82.203 Y70.681 E1.01352
G1 X82.408 Y70.98 E1.0304
G1 X82.588 Y71.294 E1.04725
G1 X82.745 Y71.615 E1.06389
G1 X82.89 Y71.972 E1.08183
G1 X82.997 Y72.302 E1.09799
G1 X83.09 Y72.668 E1.11557
G1 X83.148 Y73.011 E1.13177
G1 X83.187 Y73.373 E1.14872
G1 X83.2 Y73.735 E1.16559
G1 X83.187 Y74.098 E1.18251
G1 X83.15 Y74.459 E1.1994
G1 X83.09 Y74.805 E1.21575
G1 X82.999 Y75.168 E1.23318
G1 X82.892 Y75.498 E1.24933
G1 X82.751 Y75.857 E1.26729
G1 X82.595 Y76.177 E1.28387
G1 X82.414 Y76.492 E1.30079
G1 X82.211 Y76.794 E1.31773
G1 X81.988 Y77.078 E1.33455
G1 X81.746 Y77.35 E1.3515
G1 X81.475 Y77.61 E1.36899
G1 X81.195 Y77.844 E1.38598
G1 X80.903 Y78.056 E1.40278
G1 X80.605 Y78.242 E1.41914
G1 X80.273 Y78.419 E1.43666
G1 X79.942 Y78.565 E1.4535
G1 X79.608 Y78.686 E1.47004
G1 X79.237 Y78.794 E1.48804
G1 X78.895 Y78.865 E1.5043
G1 X78.537 Y78.914 E1.52113
G0 F6000 X78.605 Y79.309
;TYPE:WALL-INNER
G1 F1200 X78.215 Y79.338 E1.53934
G1 X77.839 Y79.339 E1.55684
G1 X77.447 Y79.314 E1.57513
G1 X77.064 Y79.263 E1.59313
G1 X76.693 Y79.187 E1.61076
G1 X76.301 Y79.076 E1.62973
G1 X75.935 Y78.946 E1.64782
G1 X75.577 Y78.791 E1.66598
G1 X75.218 Y78.603 E1.68485
G1 X74.894 Y78.401 E1.70263
G1 X74.58 Y78.174 E1.72067
G1 X74.278 Y77.926 E1.73887
G1 X73.994 Y77.654 E1.75718
G1 X73.708 Y77.341 E1.77692
G1 X73.468 Y77.032 E1.79514
G1 X73.248 Y76.709 E1.81334
G1 X73.045 Y76.352 E1.83246
G1 X72.878 Y76.006 E1.85035
G1 X72.731 Y75.642 E1.86863
G1 X72.609 Y75.26 E1.8873
G1 X72.513 Y74.872 E1.90591
G1 X72.452 Y74.5 E1.92347
G1 X72.412 Y74.109 E1.94177
G1 X72.4 Y73.764 E1.95784
G1 X72.412 Y73.372 E1.9761
G1 X72.452 Y72.982 E1.99436
G1 X72.515 Y72.61 E2.01193
G1 X72.613 Y72.218 E2.03074
G1 X72.726 Y71.861 E2.04818
G1 X72.876 Y71.481 E2.0672
G1 X73.045 Y71.129 E2.08538
G1 X73.241 Y70.789 E2.10366
G1 X73.455 Y70.468 E2.12162
G1 X73.698 Y70.157 E2.14
G1 X73.953 Y69.869 E2.15791
G1 X74.23 Y69.601 E2.17586
G1 X74.522 Y69.352 E2.19373
G1 X74.841 Y69.119 E2.21212
G1 X75.192 Y68.898 E2.23144
G1 X75.551 Y68.705 E2.25042
G1 X75.87 Y68.563 E2.26668
G1 X76.266 Y68.417 E2.28633
G1 X76.62 Y68.312 E2.30352
G1 X77.016 Y68.229 E2.32236
G1 X77.422 Y68.172 E2.34145
G1 X77.772 Y68.147 E2.35779
G1 X78.162 Y68.145 E2.37595
G1 X78.564 Y68.17 E2.39471
G1 X78.952 Y68.223 E2.41294
G1 X79.32 Y68.299 E2.43044
G1 X79.717 Y68.41 E2.44963
G1 X80.082 Y68.544 E2.46774
G1 X80.435 Y68.698 E2.48567
G1 X80.795 Y68.888 E2.50463
G1 X81.119 Y69.091 E2.52243
G1 X81.431 Y69.317 E2.54037
G1 X81.766 Y69.595 E2.56064
G1 X82.043 Y69.866 E2.57868
G1 X82.268 Y70.115 E2.59431
G1 X82.512 Y70.426 E2.61272
G1 X82.729 Y70.74 E2.63049
G1 X82.929 Y71.084 E2.64902
G1 X83.098 Y71.426 E2.66678
G1 X83.255 Y71.808 E2.68601
G1 X83.374 Y72.164 E2.70349
G1 X83.474 Y72.554 E2.72224
G1 X83.541 Y72.931 E2.74007
G1 X83.586 Y73.336 E2.75904
G1 X83.6 Y73.705 E2.77624
G1 X83.588 Y74.098 E2.79455
G1 X83.549 Y74.487 E2.81275
G1 X83.487 Y74.858 E2.83026
G1 X83.391 Y75.251 E2.8491
G1 X83.277 Y75.61 E2.86664
G1 X83.131 Y75.987 E2.88547
G1 X82.961 Y76.34 E2.90371
G1 X82.768 Y76.679 E2.92188
G1 X82.552 Y77.004 E2.94005
G1 X82.311 Y77.315 E2.95837
G1 X82.056 Y77.604 E2.97631
G1 X81.762 Y77.889 E2.99538
G1 X81.464 Y78.142 E3.01358
G1 X81.149 Y78.372 E3.03174
G1 X80.829 Y78.574 E3.04936
G1 X80.475 Y78.765 E3.06809
G1 X80.117 Y78.926 E3.08637
G1 X79.756 Y79.058 E3.10427
G1 X79.365 Y79.174 E3.12326
G1 X78.989 Y79.254 E3.14116
G1 X78.605 Y79.309 E3.15923
G1 F1500 E-3.34077
G0 F6000 X78.605 Y79.318
G0 X78.228 Y79.518
G0 X77.462 Y88.961
G0 X69.462 Y89.204
G0 X69.462 Y142.28
G0 X69.973 Y142.352
G1 F1500 E3.15923
G0 F6000 X69.973 Y141.941
;TYPE:WALL-OUTER
G1 F1200 X69.833 Y141.853 E3.16692
G1 X69.8 Y141.742 E3.17232
G1 X69.8 Y89.742 E5.59365
G1 X69.866 Y89.593 E5.60124
G1 X70 Y89.542 E5.60792
G1 X150.026 Y89.543 E9.33427
G1 X150.163 Y89.625 E9.3417
G1 X150.2 Y89.742 E9.34741
G1 X150.199 Y141.764 E11.76978
G1 X150.121 Y141.902 E11.77716
G1 X150 Y141.942 E11.78309
G1 X69.973 Y141.941 E15.50948
G0 F6000 X69.959 Y142.341
;TYPE:WALL-INNER
G1 F1200 X69.699 Y142.262 E15.52214
G1 X69.5 Y142.075 E15.53485
G1 X69.408 Y141.841 E15.54656
G1 X69.4 Y141.742 E15.55119
G1 X69.4 Y89.742 E17.97252
G1 X69.453 Y89.494 E17.98433
G1 X69.611 Y89.284 E17.99657
G1 X69.833 Y89.165 E18.0083
G1 X70.232 Y89.142 E18.02691
G1 X150.026 Y89.142 E21.74245
G1 X150.268 Y89.205 E21.75409
G1 X150.47 Y89.368 E21.76618
G1 X150.587 Y89.614 E21.77887
G1 X150.6 Y89.742 E21.78486
G1 X150.6 Y141.775 E24.20773
G1 X150.532 Y142.022 E24.21966
G1 X150.362 Y142.221 E24.23185
G1 X150.12 Y142.331 E24.24423
G1 X150 Y142.342 E24.24984
G1 X69.959 Y142.341 E27.97688
G1 F1500 E21.47688
G0 F6000 X69.959 Y142.352
G0 X69.53 Y142.366
G0 X69.53 Y165.299
G0 X40.58 Y165.519
G1 F1500 E27.97688
G0 F6000 X40.201 Y165.899
;TYPE:WALL-OUTER
G1 F1200 X179.8 Y165.9 E34.47719
G1 X179.8 Y53.229 E39.72363
G1 X40.2 Y53.229 E46.22399
G1 X40.201 Y165.899 E51.47038
G0 F6000 X40.601 Y165.499
;TYPE:WALL-INNER
G1 F1200 X179.4 Y165.5 E57.93344
G1 X179.4 Y53.629 E63.14262
G1 X40.6 Y53.629 E69.60573
G1 X40.601 Y165.499 E74.81487
G0 F6000 X40.961 Y165.139
;TYPE:SKIN
G1 F1200 X179.04 Y165.139 E81.2444
G1 X179.04 Y53.989 E86.42001
G1 X40.96 Y53.989 E92.8496
G1 X40.961 Y165.139 E98.02521
G1 F1500 E91.52521
G0 F6000 X40.701 Y165.139
G0 X69.987 Y165.299
G0 X70 Y142.522
G1 F1500 E98.02521
G0 F6000 X69.983 Y142.702
G1 F1200 X69.702 Y142.655 E98.03847
G1 X69.408 Y142.495 E98.05406
G1 X69.171 Y142.223 E98.07086
G1 X69.052 Y141.881 E98.08772
G1 X69.044 Y141.824 E98.0904
G1 X69.041 Y89.702 E100.51742
G1 X69.113 Y89.378 E100.53287
G1 X69.308 Y89.081 E100.54942
G1 X69.513 Y88.925 E100.56141
G1 X69.644 Y88.853 E100.56837
G1 X69.902 Y88.787 E100.58077
G1 X70.267 Y88.785 E100.59777
G1 X150.089 Y88.785 E104.31462
G1 X150.37 Y88.857 E104.32812
G1 X150.632 Y89.019 E104.34247
G1 X150.836 Y89.271 E104.35756
G1 X150.948 Y89.601 E104.37379
G1 X150.956 Y89.658 E104.37647
G1 X150.959 Y141.768 E106.80293
G1 X150.898 Y142.083 E106.81787
G1 X150.728 Y142.367 E106.83328
G1 X150.462 Y142.583 E106.84924
G1 X150.102 Y142.695 E106.86679
G1 X150.05 Y142.701 E106.86923
G1 X69.983 Y142.702 E110.59749
G1 F1500 E104.09749
G0 F6000 X69.987 Y142.442
G0 X69.462 Y142.28
G0 X69.462 Y89.204
G0 X77.838 Y88.961
G0 X78.228 Y79.518
G0 X78.623 Y79.407
G1 F1500 E110.59749
G0 F6000 X78.642 Y79.667
G1 F1200 X78.227 Y79.697 E110.61686
G1 X77.826 Y79.699 E110.63553
G1 X77.412 Y79.673 E110.65485
G1 X76.989 Y79.616 E110.67472
G1 X76.606 Y79.538 E110.69292
G1 X76.19 Y79.42 E110.71306
G1 X75.8 Y79.28 E110.73235
G1 X75.419 Y79.115 E110.75169
G1 X75.025 Y78.909 E110.77239
G1 X74.691 Y78.698 E110.79078
G1 X74.369 Y78.467 E110.80924
G1 X74.036 Y78.194 E110.82929
G1 X73.734 Y77.904 E110.84878
G1 X73.442 Y77.584 E110.86896
G1 X73.187 Y77.258 E110.88823
G1 X72.957 Y76.92 E110.90727
G1 X72.745 Y76.556 E110.92688
G1 X72.566 Y76.19 E110.94585
G1 X72.4 Y75.785 E110.96623
G1 X72.274 Y75.404 E110.98492
G1 X72.168 Y74.987 E111.00495
G1 X72.102 Y74.598 E111.02333
G1 X72.056 Y74.178 E111.043
G1 X72.04 Y73.78 E111.06155
G1 X72.053 Y73.347 E111.08172
G1 X72.095 Y72.934 E111.10105
G1 X72.162 Y72.536 E111.11984
G1 X72.267 Y72.118 E111.13991
G1 X72.388 Y71.739 E111.15844
G1 X72.546 Y71.336 E111.17859
G1 X72.728 Y70.957 E111.19817
G1 X72.942 Y70.587 E111.21807
G1 X73.163 Y70.256 E111.2366
G1 X73.421 Y69.927 E111.25607
G1 X73.694 Y69.618 E111.27527
G1 X73.989 Y69.335 E111.29431
G1 X74.3 Y69.069 E111.31336
G1 X74.639 Y68.822 E111.33289
G1 X74.976 Y68.607 E111.35151
G1 X75.348 Y68.403 E111.37126
G1 X75.735 Y68.23 E111.391
G1 X76.113 Y68.089 E111.40979
G1 X76.522 Y67.965 E111.42969
G1 X76.939 Y67.877 E111.44953
G1 X77.34 Y67.819 E111.4684
G1 X77.76 Y67.788 E111.48801
G1 X78.175 Y67.785 E111.50734
G1 X78.6 Y67.811 E111.52716
G1 X79.029 Y67.87 E111.54733
G1 X79.407 Y67.948 E111.5653
G1 X79.827 Y68.068 E111.58564
G1 X80.218 Y68.21 E111.60501
G1 X80.592 Y68.374 E111.62402
G1 X80.976 Y68.577 E111.64425
G1 X81.321 Y68.793 E111.6632
G1 X81.651 Y69.032 E111.68218
G1 X81.969 Y69.296 E111.70142
G1 X82.274 Y69.587 E111.72105
G1 X82.546 Y69.885 E111.73984
G1 X82.802 Y70.212 E111.75917
G1 X83.032 Y70.545 E111.77802
G1 X83.247 Y70.914 E111.79791
G1 X83.427 Y71.279 E111.81686
G1 X83.593 Y71.682 E111.83715
G1 X83.721 Y72.063 E111.85587
G1 X83.827 Y72.478 E111.87581
G1 X83.896 Y72.868 E111.89425
G1 X83.943 Y73.289 E111.91398
G1 X83.96 Y73.704 E111.93332
G1 X83.948 Y74.122 E111.95279
G1 X83.906 Y74.536 E111.97217
G1 X83.842 Y74.92 E111.99029
G1 X83.733 Y75.366 E112.01167
G1 X83.615 Y75.731 E112.02954
G1 X83.461 Y76.132 E112.04954
G1 X83.28 Y76.508 E112.06897
G1 X83.073 Y76.869 E112.08835
G1 X82.844 Y77.216 E112.1077
G1 X82.589 Y77.545 E112.12709
G1 X82.317 Y77.853 E112.14622
G1 X82.003 Y78.158 E112.1666
G1 X81.685 Y78.427 E112.186
G1 X81.352 Y78.671 E112.20522
G1 X81.01 Y78.886 E112.22403
G1 X80.634 Y79.089 E112.24393
G1 X80.251 Y79.26 E112.26346
G1 X79.87 Y79.399 E112.28234
G1 X79.453 Y79.525 E112.30263
G1 X79.05 Y79.611 E112.32182
G1 X78.642 Y79.667 E112.34099
G1 F1500 E105.84099
G0 F6000 X78.623 Y79.407
G0 X77.435 Y79.495
G0 X77.435 Y165.299
G0 X41.618 Y165.399
G1 F1500 E112.34099
G0 F6000 X41.618 Y164.938
G1 F1200 X41.159 Y164.479 E112.37122
G0 F6000 X41.159 Y163.913
G1 F1200 X42.184 Y164.938 E112.43872
G0 F6000 X42.75 Y164.938
G1 F1200 X41.159 Y163.348 E112.54345
G0 F6000 X41.159 Y162.782
G1 F1200 X43.315 Y164.938 E112.68543
G0 F6000 X43.881 Y164.938
G1 F1200 X41.159 Y162.216 E112.86468
G0 F6000 X41.159 Y161.65
G1 F1200 X44.447 Y164.938 E113.0812
G0 F6000 X45.013 Y164.938
G1 F1200 X41.159 Y161.085 E113.33496
G0 F6000 X41.159 Y160.519
G1 F1200 X45.578 Y164.938 E113.62596
G0 F6000 X46.144 Y164.938
G1 F1200 X41.159 Y159.953 E113.95423
G0 F6000 X41.159 Y159.388
G1 F1200 X46.71 Y164.938 E114.31974
G0 F6000 X47.275 Y164.938
G1 F1200 X41.159 Y158.822 E114.72249
G0 F6000 X41.159 Y158.256
G1 F1200 X47.841 Y164.938 E115.16251
G0 F6000 X48.407 Y164.938
G1 F1200 X41.159 Y157.691 E115.63977
G0 F6000 X41.159 Y157.125
G1 F1200 X48.972 Y164.938 E116.15427
G0 F6000 X49.538 Y164.938
G1 F1200 X41.159 Y156.559 E116.70604
G0 F6000 X41.159 Y155.994
G1 F1200 X50.104 Y164.938 E117.29505
G0 F6000 X50.669 Y164.938
G1 F1200 X41.159 Y155.428 E117.9213
G0 F6000 X41.159 Y154.862
G1 F1200 X51.235 Y164.938 E118.58482
G0 F6000 X51.801 Y164.938
G1 F1200 X41.159 Y154.297 E119.28558
G0 F6000 X41.159 Y153.731
G1 F1200 X52.366 Y164.938 E120.02358
G0 F6000 X52.932 Y164.938
G1 F1200 X41.159 Y153.165 E120.79885
G0 F6000 X41.159 Y152.6
G1 F1200 X53.498 Y164.938 E121.61137
G0 F6000 X54.063 Y164.938
G1 F1200 X41.159 Y152.034 E122.46112
G0 F6000 X41.159 Y151.468
G1 F1200 X54.629 Y164.938 E123.34814
G0 F6000 X55.195 Y164.938
G1 F1200 X41.159 Y150.902 E124.27243
G0 F6000 X41.159 Y150.337
G1 F1200 X55.761 Y164.938 E125.23397
G0 F6000 X56.326 Y164.938
G1 F1200 X41.159 Y149.771 E126.23274
G0 F6000 X41.159 Y149.205
G1 F1200 X56.892 Y164.938 E127.26878
G0 F6000 X57.458 Y164.938
G1 F1200 X41.159 Y148.64 E128.34207
G0 F6000 X41.159 Y148.074
G1 F1200 X58.023 Y164.938 E129.45259
G0 F6000 X58.589 Y164.938
G1 F1200 X41.159 Y147.508 E130.60039
G0 F6000 X41.159 Y146.943
G1 F1200 X59.155 Y164.938 E131.78542
G0 F6000 X59.72 Y164.938
G1 F1200 X41.159 Y146.377 E133.0077
G0 F6000 X41.159 Y145.811
G1 F1200 X60.286 Y164.938 E134.26724
G0 F6000 X60.852 Y164.938
G1 F1200 X41.159 Y145.246 E135.56403
G0 F6000 X41.159 Y144.68
G1 F1200 X61.417 Y164.938 E136.89805
G0 F6000 X61.983 Y164.938
G1 F1200 X41.159 Y144.114 E138.26935
G0 F6000 X41.159 Y143.549
G1 F1200 X62.549 Y164.938 E139.67788
G0 F6000 X63.114 Y164.938
G1 F1200 X41.159 Y142.983 E141.12365
G0 F6000 X41.159 Y142.417
G1 F1200 X63.68 Y164.938 E142.6067
G0 F6000 X64.246 Y164.938
G1 F1200 X41.159 Y141.851 E144.12702
G0 F6000 X41.159 Y141.286
G1 F1200 X64.811 Y164.938 E145.68454
G0 F6000 X65.377 Y164.938
G1 F1200 X41.159 Y140.72 E147.27934
G0 F6000 X41.159 Y140.154
G1 F1200 X65.943 Y164.938 E148.91141
G0 F6000 X66.509 Y164.938
G1 F1200 X41.159 Y139.589 E150.58072
G0 F6000 X41.159 Y139.023
G1 F1200 X67.074 Y164.938 E152.28726
G0 F6000 X67.64 Y164.938
G1 F1200 X41.159 Y138.457 E154.03108
G0 F6000 X41.159 Y137.892
G1 F1200 X68.206 Y164.938 E155.81214
G0 F6000 X68.771 Y164.938
G1 F1200 X41.159 Y137.326 E157.63044
G0 F6000 X41.159 Y136.76
G1 F1200 X69.337 Y164.938 E159.48601
G0 F6000 X69.903 Y164.938
G1 F1200 X41.159 Y136.195 E161.37882
G0 F6000 X41.159 Y135.629
G1 F1200 X70.468 Y164.938 E163.30886
G0 F6000 X71.034 Y164.938
G1 F1200 X41.159 Y135.063 E165.27618
G0 F6000 X41.159 Y134.498
G1 F1200 X71.6 Y164.938 E167.28074
G0 F6000 X72.165 Y164.938
G1 F1200 X41.159 Y133.932 E169.32254
G0 F6000 X41.159 Y133.366
G1 F1200 X72.731 Y164.938 E171.40161
G0 F6000 X73.297 Y164.938
G1 F1200 X41.159 Y132.801 E173.51792
G0 F6000 X41.159 Y132.235
G1 F1200 X73.862 Y164.938 E175.67147
G0 F6000 X74.428 Y164.938
G1 F1200 X41.159 Y131.669 E177.86229
G0 F6000 X41.159 Y131.103
G1 F1200 X74.994 Y164.938 E180.09038
G0 F6000 X75.56 Y164.938
G1 F1200 X41.159 Y130.538 E182.35571
G0 F6000 X41.159 Y129.972
G1 F1200 X76.125 Y164.938 E184.65828
G0 F6000 X76.691 Y164.938
G1 F1200 X41.159 Y129.406 E186.99813
G0 F6000 X41.159 Y128.841
G1 F1200 X77.257 Y164.938 E189.37521
G0 F6000 X77.822 Y164.938
G1 F1200 X41.159 Y128.275 E191.78953
G0 F6000 X41.159 Y127.709
G1 F1200 X78.388 Y164.938 E194.24112
G0 F6000 X78.954 Y164.938
G1 F1200 X41.159 Y127.144 E196.72996
G0 F6000 X41.159 Y126.578
G1 F1200 X79.519 Y164.938 E199.25603
G0 F6000 X80.085 Y164.938
G1 F1200 X41.159 Y126.012 E201.81937
G0 F6000 X41.159 Y125.447
G1 F1200 X80.651 Y164.938 E204.41995
