; generated by PrusaSlicer 2.4.2+arm64 on 2022-07-14 at 19:30:30 UTC

; 

; external perimeters extrusion width = 0.45mm
; perimeters extrusion width = 0.45mm
; infill extrusion width = 0.45mm
; solid infill extrusion width = 0.45mm
; top infill extrusion width = 0.45mm
; first layer extrusion width = 0.42mm

; external perimeters extrusion width = 0.45mm
; perimeters extrusion width = 0.45mm
; infill extrusion width = 0.45mm
; solid infill extrusion width = 0.45mm
; top infill extrusion width = 0.45mm
; first layer extrusion width = 0.42mm

; external perimeters extrusion width = 0.45mm
; perimeters extrusion width = 0.45mm
; infill extrusion width = 0.45mm
; solid infill extrusion width = 0.45mm
; top infill extrusion width = 0.45mm
; first layer extrusion width = 0.42mm

; external perimeters extrusion width = 0.45mm
; perimeters extrusion width = 0.45mm
; infill extrusion width = 0.45mm
; solid infill extrusion width = 0.45mm
; top infill extrusion width = 0.45mm
; first layer extrusion width = 0.42mm

; external perimeters extrusion width = 0.45mm
; perimeters extrusion width = 0.45mm
; infill extrusion width = 0.45mm
; solid infill extrusion width = 0.45mm
; top infill extrusion width = 0.45mm
; first layer extrusion width = 0.42mm

; external perimeters extrusion width = 0.45mm
; perimeters extrusion width = 0.45mm
; infill extrusion width = 0.45mm
; solid infill extrusion width = 0.45mm
; top infill extrusion width = 0.45mm
; first layer extrusion width = 0.42mm

; external perimeters extrusion width = 0.45mm
; perimeters extrusion width = 0.45mm
; infill extrusion width = 0.45mm
; solid infill extrusion width = 0.45mm
; top infill extrusion width = 0.45mm
; first layer extrusion width = 0.42mm

; external perimeters extrusion width = 0.45mm
; perimeters extrusion width = 0.45mm
; infill extrusion width = 0.45mm
; solid infill extrusion width = 0.45mm
; top infill extrusion width = 0.45mm
; first layer extrusion width = 0.42mm

; external perimeters extrusion width = 0.45mm
; perimeters extrusion width = 0.45mm
; infill extrusion width = 0.45mm
; solid infill extrusion width = 0.45mm
; top infill extrusion width = 0.45mm
; first layer extrusion width = 0.42mm

; external perimeters extrusion width = 0.45mm
; perimeters extrusion width = 0.45mm
; infill extrusion width = 0.45mm
; solid infill extrusion width = 0.45mm
; top infill extrusion width = 0.45mm
; first layer extrusion width = 0.42mm

; external perimeters extrusion width = 0.45mm
; perimeters extrusion width = 0.45mm
; infill extrusion width = 0.45mm
; solid infill extrusion width = 0.45mm
; top infill extrusion width = 0.45mm
; first layer extrusion width = 0.42mm

; external perimeters extrusion width = 0.45mm
; perimeters extrusion width = 0.45mm
; infill extrusion width = 0.45mm
; solid infill extrusion width = 0.45mm
; top infill extrusion width = 0.45mm
; first layer extrusion width = 0.42mm

; external perimeters extrusion width = 0.45mm
; perimeters extrusion width = 0.45mm
; infill extrusion width = 0.45mm
; solid infill extrusion width = 0.45mm
; top infill extrusion width = 0.45mm
; first layer extrusion width = 0.42mm

; external perimeters extrusion width = 0.45mm
; perimeters extrusion width = 0.45mm
; infill extrusion width = 0.45mm
; solid infill extrusion width = 0.45mm
; top infill extrusion width = 0.45mm
; first layer extrusion width = 0.42mm

; external perimeters extrusion width = 0.45mm
; perimeters extrusion width = 0.45mm
; infill extrusion width = 0.45mm
; solid infill extrusion width = 0.45mm
; top infill extrusion width = 0.45mm
; first layer extrusion width = 0.42mm

; external perimeters extrusion width = 0.45mm
; perimeters extrusion width = 0.45mm
; infill extrusion width = 0.45mm
; solid infill extrusion width = 0.45mm
; top infill extrusion width = 0.45mm
; first layer extrusion width = 0.42mm

; external perimeters extrusion width = 0.45mm
; perimeters extrusion width = 0.45mm
; infill extrusion width = 0.45mm
; solid infill extrusion width = 0.45mm
; top infill extrusion width = 0.45mm
; first layer extrusion width = 0.42mm

; external perimeters extrusion width = 0.45mm
; perimeters extrusion width = 0.45mm
; infill extrusion width = 0.45mm
; solid infill extrusion width = 0.45mm
; top infill extrusion width = 0.45mm
; first layer extrusion width = 0.42mm

; external perimeters extrusion width = 0.45mm
; perimeters extrusion width = 0.45mm
; infill extrusion width = 0.45mm
; solid infill extrusion width = 0.45mm
; top infill extrusion width = 0.45mm
; first layer extrusion width = 0.42mm

; external perimeters extrusion width = 0.45mm
; perimeters extrusion width = 0.45mm
; infill extrusion width = 0.45mm
; solid infill extrusion width = 0.45mm
; top infill extrusion width = 0.45mm
; first layer extrusion width = 0.42mm

; external perimeters extrusion width = 0.45mm
; perimeters extrusion width = 0.45mm
; infill extrusion width = 0.45mm
; solid infill extrusion width = 0.45mm
; top infill extrusion width = 0.45mm
; first layer extrusion width = 0.42mm

M107
;TYPE:Custom
G90 ; use absolute coordinates
M83 ; extruder relative mode
M140 S60 ; set final bed temp
M104 S150 ; set temporary nozzle temp to prevent oozing during homing and auto bed leveling
G4 S10 ; allow partial nozzle warmup
G28 ; home all axis
G29 ; auto bed levelling
G1 Z50 F240
G1 X2 Y10 F3000
M104 S215 ; set final nozzle temp
M190 S60 ; wait for bed temp to stabilize
M109 S215 ; wait for nozzle temp to stabilize
G1 Z0.28 F240
G92 E0
G1 Y140 E10 F1500 ; prime the nozzle
G1 X2.3 F5000
G92 E0
G1 Y10 E10 F1200 ; prime the nozzle
G92 E0
G21 ; set units to millimeters
G90 ; use absolute coordinates
M83 ; use relative distances for extrusion
; Filament gcode
M107
;LAYER_CHANGE
;Z:0.2
;HEIGHT:0.2
;BEFORE_LAYER_CHANGE
G92 E0
;0.2


G1 E-5 F3600
G1 Z.2 F9000
;AFTER_LAYER_CHANGE
;0.2
G1 X38.272 Y32.564
G1 E5 F2400
M204 S500
;TYPE:Skirt/Brim
;WIDTH:0.42
G1 F1200
G1 X40.034 Y30.998 E.07393
G1 X47.028 Y28.288 E.23516
G1 X48.248 Y28.06 E.03892
G1 X180.772 Y28.06 E4.15519
G1 X182.355 Y28.454 E.05115
G1 X183.901 Y30.167 E.07235
G1 X192.839 Y52.188 E.74515
G1 X193.078 Y53.214 E.03304
G1 X193.18 Y54.748 E.0482
G1 X193.157 Y176.648 E3.82208
G1 X193.063 Y177.438 E.02495
G1 X192.849 Y178.288 E.02747
G1 X183.911 Y200.809 E.7597
G1 X182.961 Y202.135 E.05115
G1 X180.772 Y202.94 E.07312
G1 X48.248 Y202.94 E4.15519
G1 X47.028 Y202.712 E.03892
G1 X40.034 Y200.002 E.23516
G1 X38.701 Y199.063 E.05115
G1 X37.877 Y196.853 E.07393
G1 X37.877 Y34.147 E5.10155
G1 X38.257 Y32.622 E.04927
G1 E-3.5 F3600
;WIPE_START
G1 F7200
G1 X40.034 Y30.998 E-1.14362
G1 X40.587 Y30.784 E-.28138
;WIPE_END
G1 E-.075 F3600
G1 X174.667 Y150.623 F9000
G1 E5 F2400
;TYPE:Perimeter
G1 F1200
G1 X180.38 Y148.41 E.19208
G1 X185.246 Y160.968 E.42227
G1 X185.246 Y186.116 E.78852
G1 X180.38 Y198.674 E.42227
G1 X174.667 Y196.461 E.19208
G1 X182.898 Y175.219 E.71428
G1 X182.898 Y171.865 E.10516
G1 X174.689 Y150.679 E.71239
G1 X174.179 Y150.408 F9000
;TYPE:External perimeter
G1 F1200
G1 X180.595 Y147.922 E.21572
G1 X185.623 Y160.897 E.4363
G1 X185.623 Y186.187 E.79294
G1 X180.595 Y199.162 E.4363
G1 X174.179 Y196.676 E.21572
G1 X182.521 Y175.148 E.72389
G1 X182.521 Y171.936 E.10074
G1 X174.201 Y150.464 E.72201
G1 X174.574 Y150.475 F9000
G1 E-3.5 F3600
;WIPE_START
G1 F7200
G1 X176.989 Y149.356 E-1.425
;WIPE_END
G1 E-.075 F3600
G1 X180.8 Y149.807 F9000
G1 E5 F2400
;TYPE:Solid infill
;WIDTH:0.420597
G1 F1200
G1 X179.894 Y148.901 E.04022
G1 X179.509 Y149.05 E.01296
G1 X180.84 Y150.382 E.05913
G1 X181.178 Y151.254 E.02937
G1 X179.124 Y149.2 E.09123
G1 X178.739 Y149.349 E.01296
G1 X181.516 Y152.126 E.12334
G1 X181.854 Y152.998 E.02937
G1 X178.354 Y149.498 E.15544
G1 X177.969 Y149.647 E.01296
G1 X182.192 Y153.87 E.18754
G1 X182.53 Y154.742 E.02937
G1 X177.584 Y149.796 E.21964
G1 X177.199 Y149.945 E.01296
G1 X182.868 Y155.614 E.25175
G1 X183.206 Y156.486 E.02937
G1 X176.814 Y150.095 E.28385
G1 X176.429 Y150.244 E.01296
G1 X183.544 Y157.358 E.31595
G1 X183.881 Y158.23 E.02937
G1 X176.044 Y150.393 E.34806
G1 X175.659 Y150.542 E.01296
G1 X184.219 Y159.102 E.38016
G1 X184.557 Y159.974 E.02937
G1 X175.275 Y150.691 E.41226
G1 X175.033 Y150.785 E.00813
G1 X175.159 Y151.11 E.01096
G1 X184.895 Y160.846 E.43239
G1 X184.963 Y161.021 E.00588
G1 X184.963 Y161.448 E.01341
G1 X175.497 Y151.982 E.42038
G1 X175.835 Y152.854 E.02937
G1 X184.963 Y161.982 E.40538
G1 X184.963 Y162.516 E.01677
G1 X176.173 Y153.726 E.39037
G1 X176.511 Y154.598 E.02937
G1 X184.963 Y163.05 E.37536
G1 X184.963 Y163.584 E.01677
G1 X176.849 Y155.47 E.36036
G1 X177.187 Y156.342 E.02937
G1 X184.963 Y164.118 E.34535
G1 X184.963 Y164.652 E.01677
G1 X177.525 Y157.214 E.33035
G1 X177.862 Y158.086 E.02937
G1 X184.963 Y165.187 E.31534
G1 X184.963 Y165.721 E.01677
G1 X178.2 Y158.958 E.30033
G1 X178.538 Y159.83 E.02937
G1 X184.963 Y166.255 E.28533
G1 X184.963 Y166.789 E.01677
G1 X178.876 Y160.702 E.27032
G1 X179.214 Y161.574 E.02937
G1 X184.963 Y167.323 E.25531
G1 X184.963 Y167.857 E.01677
G1 X179.552 Y162.446 E.24031
G1 X179.89 Y163.318 E.02937
G1 X184.963 Y168.391 E.2253
G1 X184.963 Y168.925 E.01677
G1 X180.228 Y164.19 E.2103
G1 X180.566 Y165.062 E.02937
G1 X184.963 Y169.459 E.19529
G1 X184.963 Y169.994 E.01677
G1 X180.903 Y165.934 E.18028
G1 X181.241 Y166.806 E.02937
G1 X184.963 Y170.528 E.16528
G1 X184.963 Y171.062 E.01677
G1 X181.579 Y167.678 E.15027
G1 X181.917 Y168.55 E.02937
G1 X184.963 Y171.596 E.13526
G1 X184.963 Y172.13 E.01677
G1 X182.255 Y169.422 E.12026
G1 X182.593 Y170.294 E.02937
G1 X184.963 Y172.664 E.10525
G1 X184.963 Y173.198 E.01677
G1 X182.931 Y171.166 E.09024
G1 X183.181 Y171.812 E.02175
G1 X183.181 Y171.951 E.00435
G1 X184.963 Y173.732 E.07913
G1 X184.963 Y174.266 E.01677
G1 X183.181 Y172.485 E.07913
G1 X183.181 Y173.019 E.01677
G1 X184.963 Y174.801 E.07913
G1 X184.963 Y175.335 E.01677
G1 X183.181 Y173.553 E.07913
G1 X183.181 Y174.087 E.01677
G1 X184.963 Y175.869 E.07913
G1 X184.963 Y176.403 E.01677
G1 X183.181 Y174.621 E.07913
G1 X183.181 Y175.155 E.01677
G1 X184.963 Y176.937 E.07913
G1 X184.963 Y177.471 E.01677
G1 X183.064 Y175.573 E.08431
G1 X182.915 Y175.958 E.01296
G1 X184.963 Y178.005 E.09093
G1 X184.963 Y178.539 E.01677
G1 X182.766 Y176.343 E.09756
G1 X182.617 Y176.728 E.01296
G1 X184.963 Y179.074 E.10418
G1 X184.963 Y179.608 E.01677
G1 X182.468 Y177.113 E.11081
G1 X182.319 Y177.498 E.01296
G1 X184.963 Y180.142 E.11743
G1 X184.963 Y180.676 E.01677
G1 X182.169 Y177.883 E.12406
G1 X182.02 Y178.267 E.01296
G1 X184.963 Y181.21 E.13068
G1 X184.963 Y181.744 E.01677
G1 X181.871 Y178.652 E.13731
G1 X181.722 Y179.037 E.01296
G1 X184.963 Y182.278 E.14393
G1 X184.963 Y182.812 E.01677
G1 X181.573 Y179.422 E.15056
G1 X181.424 Y179.807 E.01296
G1 X184.963 Y183.346 E.15718
G1 X184.963 Y183.881 E.01677
G1 X181.274 Y180.192 E.16381
G1 X181.125 Y180.577 E.01296
G1 X184.963 Y184.415 E.17043
G1 X184.963 Y184.949 E.01677
G1 X180.976 Y180.962 E.17706
G1 X180.827 Y181.347 E.01296
G1 X184.963 Y185.483 E.18368
G1 X184.963 Y186.017 E.01677
G1 X180.678 Y181.732 E.1903
G1 X180.529 Y182.117 E.01296
G1 X184.827 Y186.415 E.19088
G1 X184.677 Y186.8 E.01296
G1 X180.379 Y182.502 E.19088
G1 X180.23 Y182.887 E.01296
G1 X184.528 Y187.185 E.19088
G1 X184.379 Y187.57 E.01296
G1 X180.081 Y183.272 E.19088
G1 X179.932 Y183.657 E.01296
G1 X184.23 Y187.955 E.19088
G1 X184.081 Y188.34 E.01296
G1 X179.783 Y184.042 E.19088
G1 X179.634 Y184.427 E.01296
G1 X183.932 Y188.725 E.19088
G1 X183.782 Y189.11 E.01296
G1 X179.484 Y184.812 E.19088
G1 X179.335 Y185.197 E.01296
G1 X183.633 Y189.495 E.19088
G1 X183.484 Y189.88 E.01296
G1 X179.186 Y185.582 E.19088
G1 X179.037 Y185.967 E.01296
G1 X183.335 Y190.264 E.19088
G1 X183.186 Y190.649 E.01296
G1 X178.888 Y186.351 E.19088
G1 X178.739 Y186.736 E.01296
G1 X183.037 Y191.034 E.19088
G1 X182.887 Y191.419 E.01296
G1 X178.59 Y187.121 E.19088
G1 X178.44 Y187.506 E.01296
G1 X182.738 Y191.804 E.19088
G1 X182.589 Y192.189 E.01296
G1 X178.291 Y187.891 E.19088
G1 X178.142 Y188.276 E.01296
G1 X182.44 Y192.574 E.19088
G1 X182.291 Y192.959 E.01296
G1 X177.993 Y188.661 E.19088
G1 X177.844 Y189.046 E.01296
G1 X182.142 Y193.344 E.19088
G1 X181.992 Y193.729 E.01296
G1 X177.695 Y189.431 E.19088
G1 X177.545 Y189.816 E.01296
G1 X181.843 Y194.114 E.19088
G1 X181.694 Y194.499 E.01296
G1 X177.396 Y190.201 E.19088
G1 X177.247 Y190.586 E.01296
G1 X181.545 Y194.884 E.19088
G1 X181.396 Y195.269 E.01296
G1 X177.098 Y190.971 E.19088
G1 X176.949 Y191.356 E.01296
G1 X181.247 Y195.654 E.19088
G1 X181.097 Y196.039 E.01296
G1 X176.8 Y191.741 E.19088
G1 X176.65 Y192.126 E.01296
G1 X180.948 Y196.424 E.19088
G1 X180.799 Y196.809 E.01296
G1 X176.501 Y192.511 E.19088
G1 X176.352 Y192.896 E.01296
G1 X180.65 Y197.194 E.19088
G1 X180.501 Y197.579 E.01296
G1 X176.203 Y193.281 E.19088
G1 X176.054 Y193.666 E.01296
G1 X180.352 Y197.964 E.19088
G1 X180.218 Y198.308 E.01161
G1 X180.127 Y198.273 E.00307
G1 X175.905 Y194.051 E.18752
G1 X175.755 Y194.435 E.01296
G1 X179.255 Y197.935 E.15542
G1 X178.383 Y197.597 E.02937
G1 X175.606 Y194.82 E.12332
G1 X175.457 Y195.205 E.01296
G1 X177.511 Y197.259 E.09122
G1 X176.639 Y196.921 E.02937
G1 X175.308 Y195.59 E.05912
G1 X175.159 Y195.975 E.01296
G1 X176.064 Y196.881 E.04021
G1 E-3.5 F3600
;WIPE_START
G1 F7200
G1 X175.159 Y195.975 E-.60821
G1 X175.308 Y195.59 E-.1961
G1 X176.232 Y196.514 E-.62069
;WIPE_END
G1 E-.075 F3600
G1 X158.293 Y198.674 F9000
G1 E5 F2400
;TYPE:Perimeter
;WIDTH:0.42
G1 F1200
G1 X152.58 Y196.461 E.19208
G1 X160.811 Y175.219 E.71428
G1 X160.811 Y171.865 E.10516
G1 X152.58 Y150.623 E.71428
G1 X158.293 Y148.41 E.19208
G1 X163.159 Y160.968 E.42227
G1 X163.159 Y186.116 E.78852
G1 X158.314 Y198.618 E.42039
G1 X158.508 Y199.162 F9000
;TYPE:External perimeter
G1 F1200
G1 X152.092 Y196.676 E.21572
G1 X160.434 Y175.148 E.72389
G1 X160.434 Y171.936 E.10074
G1 X152.092 Y150.408 E.72389
G1 X158.508 Y147.922 E.21572
G1 X163.536 Y160.897 E.4363
G1 X163.536 Y186.187 E.79294
G1 X158.53 Y199.106 E.43442
G1 X158.233 Y198.871 F9000
G1 E-3.5 F3600
;WIPE_START
G1 F7200
G1 X155.723 Y198.047 E-1.425
;WIPE_END
G1 E-.075 F3600
G1 X158.713 Y149.807 F9000
G1 E5 F2400
;TYPE:Solid infill
;WIDTH:0.420597
G1 F1200
G1 X157.807 Y148.901 E.04022
G1 X157.422 Y149.05 E.01296
G1 X158.753 Y150.382 E.05913
G1 X159.091 Y151.254 E.02937
G1 X157.037 Y149.2 E.09123
G1 X156.652 Y149.349 E.01296
G1 X159.429 Y152.126 E.12334
G1 X159.767 Y152.998 E.02937
G1 X156.267 Y149.498 E.15544
G1 X155.882 Y149.647 E.01296
G1 X160.105 Y153.87 E.18754
G1 X160.443 Y154.742 E.02937
G1 X155.497 Y149.796 E.21964
G1 X155.112 Y149.945 E.01296
G1 X160.781 Y155.614 E.25175
G1 X161.119 Y156.486 E.02937
G1 X154.727 Y150.095 E.28385
G1 X154.342 Y150.244 E.01296
G1 X161.457 Y157.358 E.31595
G1 X161.794 Y158.23 E.02937
G1 X153.957 Y150.393 E.34806
G1 X153.572 Y150.542 E.01296
G1 X162.132 Y159.102 E.38016
G1 X162.47 Y159.974 E.02937
G1 X153.187 Y150.691 E.41226
G1 X152.946 Y150.785 E.00813
G1 X153.072 Y151.11 E.01096
G1 X162.808 Y160.846 E.43239
G1 X162.876 Y161.021 E.00588
G1 X162.876 Y161.448 E.01341
G1 X153.41 Y151.982 E.42038
G1 X153.748 Y152.854 E.02937
G1 X162.876 Y161.982 E.40538
G1 X162.876 Y162.516 E.01677
G1 X154.086 Y153.726 E.39037
G1 X154.424 Y154.598 E.02937
G1 X162.876 Y163.05 E.37536
G1 X162.876 Y163.584 E.01677
G1 X154.762 Y155.47 E.36036
G1 X155.1 Y156.342 E.02937
G1 X162.876 Y164.118 E.34535
G1 X162.876 Y164.652 E.01677
G1 X155.438 Y157.214 E.33035
G1 X155.775 Y158.086 E.02937
G1 X162.876 Y165.187 E.31534
G1 X162.876 Y165.721 E.01677
G1 X156.113 Y158.958 E.30033
G1 X156.451 Y159.83 E.02937
G1 X162.876 Y166.255 E.28533
G1 X162.876 Y166.789 E.01677
G1 X156.789 Y160.702 E.27032
G1 X157.127 Y161.574 E.02937
G1 X162.876 Y167.323 E.25531
G1 X162.876 Y167.857 E.01677
G1 X157.465 Y162.446 E.24031
G1 X157.803 Y163.318 E.02937
G1 X162.876 Y168.391 E.2253
G1 X162.876 Y168.925 E.01677
G1 X158.141 Y164.19 E.2103
G1 X158.479 Y165.062 E.02937
G1 X162.876 Y169.459 E.19529
G1 X162.876 Y169.994 E.01677
G1 X158.816 Y165.934 E.18028
G1 X159.154 Y166.806 E.02937
G1 X162.876 Y170.528 E.16528
