; generated by PrusaSlicer 2.4.2+arm64 on 2022-07-14 at 19:33:27 UTC

; 

; external perimeters extrusion width = 0.45mm
; perimeters extrusion width = 0.45mm
; infill extrusion width = 0.45mm
; solid infill extrusion width = 0.45mm
; top infill extrusion width = 0.45mm
; first layer extrusion width = 0.42mm

; external perimeters extrusion width = 0.45mm
; perimeters extrusion width = 0.45mm
; infill extrusion width = 0.45mm
; solid infill extrusion width = 0.45mm
; top infill extrusion width = 0.45mm
; first layer extrusion width = 0.42mm

; external perimeters extrusion width = 0.45mm
; perimeters extrusion width = 0.45mm
; infill extrusion width = 0.45mm
; solid infill extrusion width = 0.45mm
; top infill extrusion width = 0.45mm
; first layer extrusion width = 0.42mm

; external perimeters extrusion width = 0.45mm
; perimeters extrusion width = 0.45mm
; infill extrusion width = 0.45mm
; solid infill extrusion width = 0.45mm
; top infill extrusion width = 0.45mm
; first layer extrusion width = 0.42mm

; external perimeters extrusion width = 0.45mm
; perimeters extrusion width = 0.45mm
; infill extrusion width = 0.45mm
; solid infill extrusion width = 0.45mm
; top infill extrusion width = 0.45mm
; first layer extrusion width = 0.42mm

; external perimeters extrusion width = 0.45mm
; perimeters extrusion width = 0.45mm
; infill extrusion width = 0.45mm
; solid infill extrusion width = 0.45mm
; top infill extrusion width = 0.45mm
; first layer extrusion width = 0.42mm

; external perimeters extrusion width = 0.45mm
; perimeters extrusion width = 0.45mm
; infill extrusion width = 0.45mm
; solid infill extrusion width = 0.45mm
; top infill extrusion width = 0.45mm
; first layer extrusion width = 0.42mm

; external perimeters extrusion width = 0.45mm
; perimeters extrusion width = 0.45mm
; infill extrusion width = 0.45mm
; solid infill extrusion width = 0.45mm
; top infill extrusion width = 0.45mm
; first layer extrusion width = 0.42mm

; external perimeters extrusion width = 0.45mm
; perimeters extrusion width = 0.45mm
; infill extrusion width = 0.45mm
; solid infill extrusion width = 0.45mm
; top infill extrusion width = 0.45mm
; first layer extrusion width = 0.42mm

; external perimeters extrusion width = 0.45mm
; perimeters extrusion width = 0.45mm
; infill extrusion width = 0.45mm
; solid infill extrusion width = 0.45mm
; top infill extrusion width = 0.45mm
; first layer extrusion width = 0.42mm

; external perimeters extrusion width = 0.45mm
; perimeters extrusion width = 0.45mm
; infill extrusion width = 0.45mm
; solid infill extrusion width = 0.45mm
; top infill extrusion width = 0.45mm
; first layer extrusion width = 0.42mm

; external perimeters extrusion width = 0.45mm
; perimeters extrusion width = 0.45mm
; infill extrusion width = 0.45mm
; solid infill extrusion width = 0.45mm
; top infill extrusion width = 0.45mm
; first layer extrusion width = 0.42mm

; external perimeters extrusion width = 0.45mm
; perimeters extrusion width = 0.45mm
; infill extrusion width = 0.45mm
; solid infill extrusion width = 0.45mm
; top infill extrusion width = 0.45mm
; first layer extrusion width = 0.42mm

; external perimeters extrusion width = 0.45mm
; perimeters extrusion width = 0.45mm
; infill extrusion width = 0.45mm
; solid infill extrusion width = 0.45mm
; top infill extrusion width = 0.45mm
; first layer extrusion width = 0.42mm

; external perimeters extrusion width = 0.45mm
; perimeters extrusion width = 0.45mm
; infill extrusion width = 0.45mm
; solid infill extrusion width = 0.45mm
; top infill extrusion width = 0.45mm
; first layer extrusion width = 0.42mm

; external perimeters extrusion width = 0.45mm
; perimeters extrusion width = 0.45mm
; infill extrusion width = 0.45mm
; solid infill extrusion width = 0.45mm
; top infill extrusion width = 0.45mm
; first layer extrusion width = 0.42mm

; external perimeters extrusion width = 0.45mm
; perimeters extrusion width = 0.45mm
; infill extrusion width = 0.45mm
; solid infill extrusion width = 0.45mm
; top infill extrusion width = 0.45mm
; first layer extrusion width = 0.42mm

; external perimeters extrusion width = 0.45mm
; perimeters extrusion width = 0.45mm
; infill extrusion width = 0.45mm
; solid infill extrusion width = 0.45mm
; top infill extrusion width = 0.45mm
; first layer extrusion width = 0.42mm

M107
;TYPE:Custom
G90 ; use absolute coordinates
M83 ; extruder relative mode
M140 S60 ; set final bed temp
M104 S150 ; set temporary nozzle temp to prevent oozing during homing and auto bed leveling
G4 S10 ; allow partial nozzle warmup
G28 ; home all axis
G29 ; auto bed levelling
G1 Z50 F240
G1 X2 Y10 F3000
M104 S215 ; set final nozzle temp
M190 S60 ; wait for bed temp to stabilize
M109 S215 ; wait for nozzle temp to stabilize
G1 Z0.28 F240
G92 E0
G1 Y140 E10 F1500 ; prime the nozzle
G1 X2.3 F5000
G92 E0
G1 Y10 E10 F1200 ; prime the nozzle
G92 E0
G21 ; set units to millimeters
G90 ; use absolute coordinates
M83 ; use relative distances for extrusion
; Filament gcode
M107
;LAYER_CHANGE
;Z:0.2
;HEIGHT:0.2
;BEFORE_LAYER_CHANGE
G92 E0
;0.2


G1 E-5 F3600
G1 Z.2 F9000
;AFTER_LAYER_CHANGE
;0.2
G1 X54.579 Y46.55
G1 E5 F2400
M204 S500
;TYPE:Skirt/Brim
;WIDTH:0.42
G1 F1200
G1 X56.342 Y44.985 E.07392
G1 X63.333 Y42.275 E.23511
G1 X64.553 Y42.047 E.03892
G1 X166.122 Y42.047 E3.18461
G1 X167.705 Y42.441 E.05115
G1 X169.246 Y44.14 E.07192
G1 X176.379 Y61.499 E.58843
G1 X176.623 Y62.539 E.03349
G1 X176.726 Y64.073 E.04821
G1 X176.702 Y167.324 E3.23735
G1 X176.609 Y168.114 E.02495
G1 X176.391 Y168.97 E.0277
G1 X169.258 Y186.829 E.60296
G1 X168.305 Y188.153 E.05115
G1 X166.122 Y188.953 E.0729
G1 X64.553 Y188.953 E3.18461
G1 X63.333 Y188.725 E.03892
G1 X56.342 Y186.015 E.23511
G1 X55.008 Y185.076 E.05115
G1 X54.185 Y182.866 E.07392
G1 X54.185 Y48.134 E4.22446
G1 X54.565 Y46.609 E.04927
G1 E-3.5 F3600
;WIPE_START
G1 F7200
G1 X56.342 Y44.985 E-1.14342
G1 X56.895 Y44.77 E-.28158
;WIPE_END
G1 E-.075 F3600
G1 X166.132 Y144.793 F9000
G1 E5 F2400
;TYPE:Perimeter
G1 F1200
G1 X172.375 Y160.905 E.54176
G1 X172.565 Y160.905 E.00596
G1 X172.565 Y167.04 E.19236
G1 X166.132 Y183.642 E.55826
G1 X166.132 Y166.686 E.53165
G1 X166.439 Y165.894 E.0266
G1 X166.439 Y162.541 E.10516
G1 X166.132 Y161.749 E.0266
G1 X166.132 Y144.853 E.52977
G1 X165.755 Y143.332 F9000
;TYPE:External perimeter
G1 F1200
G1 X165.942 Y143.26 E.0063
G1 X172.633 Y160.527 E.58064
G1 X172.942 Y160.527 E.00969
G1 X172.942 Y167.407 E.21572
G1 X172.827 Y167.407 E.00361
G1 X165.942 Y185.175 E.59746
G1 X165.755 Y185.103 E.0063
G1 X165.755 Y166.615 E.57966
G1 X166.062 Y165.824 E.0266
G1 X166.062 Y162.611 E.10074
G1 X165.755 Y161.82 E.0266
G1 X165.755 Y143.392 E.57778
G1 X165.948 Y143.386 F9000
G1 X165.964 Y143.895
;TYPE:Gap fill
;WIDTH:0.135239
G1 F1200
G1 X165.991 Y144.037 E.00111
;WIDTH:0.177157
G1 X166.017 Y144.18 E.00162
;WIDTH:0.219075
G1 X166.044 Y144.323 E.00213
;WIDTH:0.260994
G1 X166.071 Y144.465 E.00263
;WIDTH:0.302912
G1 X166.097 Y144.608 E.00314
G1 X166.341 Y145.912 F9000
;WIDTH:0.13524
G1 F1200
G1 X166.368 Y146.054 E.00111
;WIDTH:0.177158
G1 X166.394 Y146.197 E.00162
;WIDTH:0.219077
G1 X166.421 Y146.339 E.00213
;WIDTH:0.260995
G1 X166.448 Y146.482 E.00263
;WIDTH:0.302914
G1 X166.474 Y146.625 E.00314
G1 X167.235 Y147.953 F9000
;TYPE:Solid infill
;WIDTH:0.423592
G1 F1200
G1 X166.415 Y147.133 E.03672
G1 X166.415 Y147.671 E.01704
G1 X167.279 Y148.535 E.03867
G1 X167.619 Y149.414 E.02984
G1 X166.415 Y148.21 E.05391
G1 X166.415 Y148.748 E.01704
G1 X167.96 Y150.293 E.06916
G1 X168.3 Y151.172 E.02984
G1 X166.415 Y149.286 E.08441
G1 X166.415 Y149.825 E.01704
G1 X168.641 Y152.051 E.09965
G1 X168.982 Y152.93 E.02984
G1 X166.415 Y150.363 E.1149
G1 X166.415 Y150.901 E.01704
G1 X169.322 Y153.809 E.13014
G1 X169.663 Y154.688 E.02984
G1 X166.415 Y151.44 E.14539
G1 X166.415 Y151.978 E.01704
G1 X170.003 Y155.567 E.16064
G1 X170.344 Y156.446 E.02984
G1 X166.415 Y152.516 E.17588
G1 X166.415 Y153.055 E.01704
G1 X170.685 Y157.325 E.19113
G1 X171.025 Y158.203 E.02984
G1 X166.415 Y153.593 E.20637
G1 X166.415 Y154.132 E.01704
G1 X171.366 Y159.082 E.22162
G1 X171.706 Y159.961 E.02984
G1 X166.415 Y154.67 E.23687
G1 X166.415 Y155.208 E.01704
G1 X172.047 Y160.84 E.25211
G1 X172.181 Y161.187 E.01178
G1 X172.283 Y161.187 E.0032
G1 X172.283 Y161.614 E.01351
G1 X166.415 Y155.747 E.26266
G1 X166.415 Y156.285 E.01704
G1 X172.283 Y162.153 E.26265
G1 X172.283 Y162.691 E.01704
G1 X166.415 Y156.823 E.26265
G1 X166.415 Y157.362 E.01704
G1 X172.283 Y163.229 E.26265
G1 X172.283 Y163.768 E.01704
G1 X166.415 Y157.9 E.26265
G1 X166.415 Y158.438 E.01704
G1 X172.283 Y164.306 E.26265
G1 X172.283 Y164.844 E.01704
G1 X166.415 Y158.977 E.26265
G1 X166.415 Y159.515 E.01704
G1 X172.283 Y165.383 E.26265
G1 X172.283 Y165.921 E.01704
G1 X166.415 Y160.054 E.26265
G1 X166.415 Y160.592 E.01704
G1 X172.283 Y166.459 E.26265
G1 X172.283 Y166.987 E.0167
G1 X166.415 Y161.13 E.26241
G1 X166.415 Y161.669 E.01704
G1 X172.129 Y167.383 E.25578
G1 X171.979 Y167.771 E.01317
G1 X166.722 Y162.514 E.23533
G1 X166.722 Y163.052 E.01704
G1 X171.828 Y168.159 E.2286
G1 X171.678 Y168.547 E.01317
G1 X166.722 Y163.59 E.22187
G1 X166.722 Y164.129 E.01704
G1 X171.528 Y168.935 E.21514
G1 X171.377 Y169.323 E.01317
G1 X166.722 Y164.667 E.20841
G1 X166.722 Y165.205 E.01704
G1 X171.227 Y169.711 E.20168
G1 X171.077 Y170.099 E.01317
G1 X166.722 Y165.744 E.19495
G1 X166.722 Y165.947 E.00645
G1 X166.628 Y166.189 E.00819
G1 X170.926 Y170.487 E.1924
G1 X170.776 Y170.875 E.01317
G1 X166.478 Y166.577 E.1924
G1 X166.415 Y166.739 E.0055
G1 X166.415 Y167.052 E.00993
G1 X170.626 Y171.263 E.18848
G1 X170.475 Y171.651 E.01317
G1 X166.415 Y167.59 E.18175
G1 X166.415 Y168.129 E.01704
G1 X170.325 Y172.039 E.17502
G1 X170.175 Y172.427 E.01317
G1 X166.415 Y168.667 E.16829
G1 X166.415 Y169.205 E.01704
G1 X170.024 Y172.815 E.16156
G1 X169.874 Y173.203 E.01317
G1 X166.415 Y169.744 E.15483
G1 X166.415 Y170.282 E.01704
G1 X169.724 Y173.591 E.1481
G1 X169.573 Y173.979 E.01317
G1 X166.415 Y170.821 E.14137
G1 X166.415 Y171.359 E.01704
G1 X169.423 Y174.367 E.13464
G1 X169.272 Y174.755 E.01317
G1 X166.415 Y171.897 E.12791
G1 X166.415 Y172.436 E.01704
G1 X169.122 Y175.143 E.12118
G1 X168.972 Y175.531 E.01317
G1 X166.415 Y172.974 E.11445
G1 X166.415 Y173.512 E.01704
G1 X168.821 Y175.919 E.10772
G1 X168.671 Y176.307 E.01317
G1 X166.415 Y174.051 E.10099
G1 X166.415 Y174.589 E.01704
G1 X168.521 Y176.695 E.09426
G1 X168.37 Y177.083 E.01317
G1 X166.415 Y175.127 E.08753
G1 X166.415 Y175.666 E.01704
G1 X168.22 Y177.471 E.0808
G1 X168.07 Y177.859 E.01317
G1 X166.415 Y176.204 E.07407
G1 X166.415 Y176.742 E.01704
G1 X167.919 Y178.247 E.06734
G1 X167.769 Y178.635 E.01317
G1 X166.415 Y177.281 E.06061
G1 X166.415 Y177.819 E.01704
G1 X167.619 Y179.023 E.05388
G1 X167.468 Y179.411 E.01317
G1 X166.415 Y178.357 E.04715
G1 X166.415 Y178.896 E.01704
G1 X167.318 Y179.799 E.04042
G1 X167.168 Y180.187 E.01317
G1 X166.415 Y179.434 E.03369
G1 X166.415 Y179.972 E.01704
G1 X167.017 Y180.575 E.02696
G1 X166.867 Y180.963 E.01317
G1 X166.415 Y180.511 E.02023
G1 X166.415 Y181.049 E.01704
G1 X166.848 Y181.482 E.01937
G1 X166.474 Y181.81 F9000
;TYPE:Gap fill
;WIDTH:0.302912
G1 F1200
G1 X166.448 Y181.953 E.00314
;WIDTH:0.260994
G1 X166.421 Y182.096 E.00263
;WIDTH:0.219075
G1 X166.394 Y182.238 E.00213
;WIDTH:0.177157
G1 X166.368 Y182.381 E.00162
;WIDTH:0.135238
G1 X166.341 Y182.523 E.00111
G1 X166.097 Y183.827 F9000
;WIDTH:0.302912
G1 F1200
G1 X166.071 Y183.97 E.00314
;WIDTH:0.260994
G1 X166.044 Y184.112 E.00263
;WIDTH:0.219075
G1 X166.017 Y184.255 E.00213
;WIDTH:0.177157
G1 X165.991 Y184.398 E.00162
;WIDTH:0.135238
G1 X165.964 Y184.54 E.00111
G1 E-3.5 F3600
;WIPE_START
G1 F7200
G1 X165.991 Y184.398 E-.06891
;WIPE_END
G1 E-1.43109 F3600
G1 X152.252 Y160.905 F9000
G1 E5 F2400
;TYPE:Perimeter
;WIDTH:0.42
G1 F1200
G1 X152.252 Y167.04 E.19236
G1 X145.819 Y183.642 E.55826
G1 X145.819 Y166.686 E.53165
G1 X146.126 Y165.894 E.0266
G1 X146.126 Y162.541 E.10516
G1 X145.819 Y161.749 E.0266
G1 X145.819 Y144.793 E.53165
G1 X152.062 Y160.905 E.54176
G1 X152.192 Y160.905 E.00408
G1 X152.32 Y160.527 F9000
;TYPE:External perimeter
G1 F1200
G1 X152.629 Y160.527 E.00969
G1 X152.629 Y167.407 E.21572
G1 X152.514 Y167.407 E.00361
G1 X145.629 Y185.175 E.59746
G1 X145.442 Y185.103 E.0063
G1 X145.442 Y166.615 E.57966
G1 X145.749 Y165.824 E.0266
G1 X145.749 Y162.611 E.10074
G1 X145.442 Y161.82 E.0266
G1 X145.442 Y143.332 E.57966
G1 X145.629 Y143.26 E.0063
G1 X152.299 Y160.472 E.57876
G1 X152.359 Y160.834 F9000
G1 E-3.5 F3600
;WIPE_START
G1 F7200
G1 X152.629 Y160.527 E-.15928
G1 X152.629 Y163.192 E-1.26572
;WIPE_END
G1 E-.075 F3600
G1 X146.922 Y147.953 F9000
G1 E5 F2400
;TYPE:Solid infill
;WIDTH:0.423592
G1 F1200
G1 X146.102 Y147.133 E.03672
G1 X146.102 Y147.671 E.01704
G1 X146.966 Y148.535 E.03867
G1 X147.306 Y149.414 E.02984
G1 X146.102 Y148.21 E.05391
G1 X146.102 Y148.748 E.01704
G1 X147.647 Y150.293 E.06916
G1 X147.987 Y151.172 E.02984
G1 X146.102 Y149.286 E.08441
G1 X146.102 Y149.825 E.01704
G1 X148.328 Y152.051 E.09965
G1 X148.668 Y152.93 E.02984
G1 X146.102 Y150.363 E.1149
G1 X146.102 Y150.901 E.01704
G1 X149.009 Y153.809 E.13014
G1 X149.35 Y154.688 E.02984
G1 X146.102 Y151.44 E.14539
G1 X146.102 Y151.978 E.01704
G1 X149.69 Y155.567 E.16064
G1 X150.031 Y156.446 E.02984
G1 X146.102 Y152.516 E.17588
G1 X146.102 Y153.055 E.01704
G1 X150.371 Y157.325 E.19113
G1 X150.712 Y158.203 E.02984
G1 X146.102 Y153.593 E.20637
G1 X146.102 Y154.132 E.01704
G1 X151.053 Y159.082 E.22162
G1 X151.393 Y159.961 E.02984
G1 X146.102 Y154.67 E.23687
G1 X146.102 Y155.208 E.01704
G1 X151.734 Y160.84 E.25211
G1 X151.868 Y161.187 E.01178
G1 X151.969 Y161.187 E.0032
G1 X151.969 Y161.614 E.01351
G1 X146.102 Y155.747 E.26266
G1 X146.102 Y156.285 E.01704
G1 X151.969 Y162.153 E.26265
G1 X151.969 Y162.691 E.01704
G1 X146.102 Y156.823 E.26265
G1 X146.102 Y157.362 E.01704
G1 X151.969 Y163.229 E.26265
G1 X151.969 Y163.768 E.01704
G1 X146.102 Y157.9 E.26265
G1 X146.102 Y158.438 E.01704
G1 X151.969 Y164.306 E.26265
G1 X151.969 Y164.844 E.01704
G1 X146.102 Y158.977 E.26265
G1 X146.102 Y159.515 E.01704
G1 X151.969 Y165.383 E.26265
G1 X151.969 Y165.921 E.01704
G1 X146.102 Y160.054 E.26265
G1 X146.102 Y160.592 E.01704
G1 X151.969 Y166.459 E.26265
G1 X151.969 Y166.987 E.0167
G1 X146.102 Y161.13 E.26241
G1 X146.102 Y161.669 E.01704
G1 X151.816 Y167.383 E.25578
G1 X151.666 Y167.771 E.01317
G1 X146.409 Y162.514 E.23533
G1 X146.409 Y163.052 E.01704
G1 X151.515 Y168.159 E.2286
G1 X151.365 Y168.547 E.01317
G1 X146.409 Y163.59 E.22187
G1 X146.409 Y164.129 E.01704
G1 X151.215 Y168.935 E.21514
G1 X151.064 Y169.323 E.01317
G1 X146.409 Y164.667 E.20841
G1 X146.409 Y165.205 E.01704
G1 X150.914 Y169.711 E.20168
G1 X150.764 Y170.099 E.01317
G1 X146.409 Y165.744 E.19495
G1 X146.409 Y165.947 E.00645
G1 X146.315 Y166.189 E.00819
G1 X150.613 Y170.487 E.1924
G1 X150.463 Y170.875 E.01317
G1 X146.165 Y166.577 E.1924
G1 X146.102 Y166.739 E.0055
G1 X146.102 Y167.052 E.00993
G1 X150.312 Y171.263 E.18848
G1 X150.162 Y171.651 E.01317
G1 X146.102 Y167.59 E.18175
G1 X146.102 Y168.129 E.01704
G1 X150.012 Y172.039 E.17502
G1 X149.861 Y172.427 E.01317
G1 X146.102 Y168.667 E.16829
G1 X146.102 Y169.205 E.01704
G1 X149.711 Y172.815 E.16156
G1 X149.561 Y173.203 E.01317
G1 X146.102 Y169.744 E.15483
G1 X146.102 Y170.282 E.01704
G1 X149.41 Y173.591 E.1481
G1 X149.26 Y173.979 E.01317
G1 X146.102 Y170.821 E.14137
G1 X146.102 Y171.359 E.01704
G1 X149.11 Y174.367 E.13464
G1 X148.959 Y174.755 E.01317
G1 X146.102 Y171.897 E.12791
G1 X146.102 Y172.436 E.01704
G1 X148.809 Y175.143 E.12118
G1 X148.659 Y175.531 E.01317
G1 X146.102 Y172.974 E.11445
G1 X146.102 Y173.512 E.01704
G1 X148.508 Y175.919 E.10772
G1 X148.358 Y176.307 E.01317
G1 X146.102 Y174.051 E.10099
G1 X146.102 Y174.589 E.01704
G1 X148.208 Y176.695 E.09426
G1 X148.057 Y177.083 E.01317
G1 X146.102 Y175.127 E.08753
G1 X146.102 Y175.666 E.01704
G1 X147.907 Y177.471 E.0808
G1 X147.757 Y177.859 E.01317
G1 X146.102 Y176.204 E.07407
G1 X146.102 Y176.742 E.01704
G1 X147.606 Y178.247 E.06734
